breeze-extended-alt/places/32/folder-documents.svg

<?xml version="1.0" encoding="UTF-8" standalone="no"?>
<!-- Created with Inkscape (http://www.inkscape.org/) -->

<svg
   width="32"
   version="1.1"
   height="32"
   viewBox="0 0 32 32"
   id="svg2"
   inkscape:version="1.1.1 (3bf5ae0d25, 2021-09-20, custom)"
   sodipodi:docname="folder-documents.svg"
   xmlns:inkscape="http://www.inkscape.org/namespaces/inkscape"
   xmlns:sodipodi="http://sodipodi.sourceforge.net/DTD/sodipodi-0.dtd"
   xmlns="http://www.w3.org/2000/svg"
   xmlns:svg="http://www.w3.org/2000/svg"
   xmlns:rdf="http://www.w3.org/1999/02/22-rdf-syntax-ns#"
   xmlns:cc="http://creativecommons.org/ns#"
   xmlns:dc="http://purl.org/dc/elements/1.1/">
  <sodipodi:namedview
     pagecolor="#ffffff"
     bordercolor="#666666"
     borderopacity="1"
     objecttolerance="10"
     gridtolerance="10"
     guidetolerance="10"
     inkscape:pageopacity="0"
     inkscape:pageshadow="2"
     inkscape:window-width="1920"
     inkscape:window-height="1007"
     id="namedview17"
     showgrid="true"
     inkscape:zoom="11.313709"
     inkscape:cx="11.004349"
     inkscape:cy="12.065009"
     inkscape:window-x="0"
     inkscape:window-y="0"
     inkscape:window-maximized="1"
     inkscape:current-layer="layer1"
     inkscape:pagecheckerboard="0">
    <inkscape:grid
       type="xygrid"
       id="grid829" />
  </sodipodi:namedview>
  <defs
     id="defs5455">
    <style
       type="text/css"
       id="current-color-scheme">
      .ColorScheme-Text {
        color:#31363b;
      }
      .ColorScheme-Highlight {
        color:#3daee9;
      }
      </style>
    <linearGradient
       id="linearGradient4172-7-9">
      <stop
         style="stop-color:#4183d7"
         id="stop4174-9-8" />
      <stop
         offset="1"
         style="stop-color:#5b94df"
         id="stop4176-4-6" />
    </linearGradient>
  </defs>
  <metadata
     id="metadata5458">
    <rdf:RDF>
      <cc:Work
         rdf:about="">
        <dc:format>image/svg+xml</dc:format>
        <dc:type
           rdf:resource="http://purl.org/dc/dcmitype/StillImage" />
      </cc:Work>
    </rdf:RDF>
  </metadata>
  <g
     inkscape:label="Capa 1"
     inkscape:groupmode="layer"
     id="layer1"
     transform="translate(-384.57143,-515.798)">
    <path
       style="fill:currentColor;fill-opacity:1;fill-rule:evenodd;stroke:none;stroke-width:1px;stroke-linecap:butt;stroke-linejoin:miter;stroke-opacity:1"
       class="ColorScheme-Highlight"
       d="m 385.57143,517.798 h 12 l 3,4 h 15 v 24 h -30 z"
       id="path4182"
       inkscape:connector-curvature="0"
       sodipodi:nodetypes="ccccccc" />
    <path
       inkscape:connector-curvature="0"
       style="fill-opacity:0.235294"
       id="path4192"
       d="m 385.57143,544.798 v 1 h 0.51725 28.96551 0.51724 v -1 h -0.51724 -28.96551 z" />
    <path
       id="rect1087-3"
       style="opacity:0.3;fill:#000000"
       d="m 385.57143,517.798 h 12 l 2.99999,4.00003 h 15 v 1 h -15 l -2.99999,3.99997 h -12 z"
       sodipodi:nodetypes="ccccccccc" />
    <path
       sodipodi:nodetypes="cccccc"
       d="m 385.57143,526.798 v 1 h 13 l 2,-5 -3,4 z"
       id="path4224"
       style="fill:#ffffff;fill-opacity:0.235294;fill-rule:evenodd"
       inkscape:connector-curvature="0" />
    <path
       sodipodi:nodetypes="ccccccc"
       d="m 400.57143,522.798 -4,3 h -11 v 1 h 6.99999 5.00001 z"
       id="path4306-3"
       style="fill-opacity:0.235294;fill-rule:evenodd"
       inkscape:connector-curvature="0" />
    <path
       sodipodi:nodetypes="cccccc"
       inkscape:connector-curvature="0"
       style="fill:#ffffff;fill-opacity:0.235294;fill-rule:evenodd"
       id="path4204"
       d="m 397.57143,517.798 3,5 h 15 v -1 h -15 z" />
    <path
       inkscape:connector-curvature="0"
       style="fill:currentColor;fill-opacity:0.6"
       class="ColorScheme-Text"
       id="rect4184"
       d="m 12,13 v 10 h 5 l 1,-1 1,-1 1,-1 v -7 z m 1,1 h 6 v 6 h -2 v 2 h -4 z"
       transform="translate(384.57143,515.798)" />
  </g>
</svg>

<?xml version="1.0" encoding="UTF-8" standalone="no"?>
<!-- Created with Inkscape (http://www.inkscape.org/) -->

<svg
   width="32"
   version="1.1"
   height="32"
   viewBox="0 0 32 32"
   id="svg2"
   inkscape:version="1.1.1 (3bf5ae0d25, 2021-09-20, custom)"
   sodipodi:docname="folder-text.svg"
   xmlns:inkscape="http://www.inkscape.org/namespaces/inkscape"
   xmlns:sodipodi="http://sodipodi.sourceforge.net/DTD/sodipodi-0.dtd"
   xmlns:xlink="http://www.w3.org/1999/xlink"
   xmlns="http://www.w3.org/2000/svg"
   xmlns:svg="http://www.w3.org/2000/svg"
   xmlns:rdf="http://www.w3.org/1999/02/22-rdf-syntax-ns#"
   xmlns:cc="http://creativecommons.org/ns#"
   xmlns:dc="http://purl.org/dc/elements/1.1/">
  <sodipodi:namedview
     pagecolor="#ffffff"
     bordercolor="#666666"
     borderopacity="1"
     objecttolerance="10"
     gridtolerance="10"
     guidetolerance="10"
     inkscape:pageopacity="0"
     inkscape:pageshadow="2"
     inkscape:window-width="1920"
     inkscape:window-height="1019"
     id="namedview17"
     showgrid="true"
     inkscape:zoom="16"
     inkscape:cx="8.25"
     inkscape:cy="21.0625"
     inkscape:window-x="0"
     inkscape:window-y="0"
     inkscape:window-maximized="1"
     inkscape:current-layer="layer1"
     inkscape:pagecheckerboard="0">
    <inkscape:grid
       type="xygrid"
       id="grid829" />
  </sodipodi:namedview>
  <defs
     id="defs5455">
    <linearGradient
       inkscape:collect="always"
       id="linearGradient835">
      <stop
         style="stop-color:#147eb8;stop-opacity:1;"
         offset="0"
         id="stop831" />
      <stop
         style="stop-color:#22a3e6;stop-opacity:1"
         offset="1"
         id="stop833" />
    </linearGradient>
    <linearGradient
       id="linearGradient4172-7-9">
      <stop
         style="stop-color:#4183d7"
         id="stop4174-9-8" />
      <stop
         offset="1"
         style="stop-color:#5b94df"
         id="stop4176-4-6" />
    </linearGradient>
    <linearGradient
       inkscape:collect="always"
       xlink:href="#linearGradient4172-5"
       id="linearGradient4208"
       gradientUnits="userSpaceOnUse"
       x1="430.10477"
       y1="541.79797"
       x2="430.10477"
       y2="495.798"
       gradientTransform="matrix(0.51724134,0,0,0.5,185.10346,274.899)" />
    <linearGradient
       inkscape:collect="always"
       id="linearGradient4172-5">
      <stop
         style="stop-color:#3daee9"
         id="stop4174-6" />
      <stop
         offset="1"
         style="stop-color:#6cc1ef"
         id="stop4176-6" />
    </linearGradient>
    <linearGradient
       inkscape:collect="always"
       xlink:href="#linearGradient835"
       id="linearGradient837"
       x1="406.57144"
       y1="525.79797"
       x2="406.57144"
       y2="517.79797"
       gradientUnits="userSpaceOnUse" />
  </defs>
  <metadata
     id="metadata5458">
    <rdf:RDF>
      <cc:Work
         rdf:about="">
        <dc:format>image/svg+xml</dc:format>
        <dc:type
           rdf:resource="http://purl.org/dc/dcmitype/StillImage" />
      </cc:Work>
    </rdf:RDF>
  </metadata>
  <g
     inkscape:label="Capa 1"
     inkscape:groupmode="layer"
     id="layer1"
     transform="translate(-384.57143,-515.798)">
    <path
       style="fill:url(#linearGradient837);fill-opacity:1;fill-rule:evenodd;stroke:none;stroke-width:1px;stroke-linecap:butt;stroke-linejoin:miter;stroke-opacity:1"
       d="m 385.57143,517.798 h 12 l 3,4 h 15 v 22 h -30 z"
       id="path4182"
       inkscape:connector-curvature="0"
       sodipodi:nodetypes="ccccccc" />
    <path
       style="fill:url(#linearGradient4208);fill-opacity:1;fill-rule:evenodd;stroke:none;stroke-width:1px;stroke-linecap:butt;stroke-linejoin:miter;stroke-opacity:1"
       d="m 385.57143,526.798 h 12 l 3,-4 h 15 l -1e-5,23 h -29.99999 z"
       id="path4186"
       inkscape:connector-curvature="0"
       sodipodi:nodetypes="ccccccc" />
    <path
       inkscape:connector-curvature="0"
       style="fill-opacity:0.235294"
       id="path4192"
       d="m 385.57143,544.798 v 1 h 0.51725 28.96551 0.51724 v -1 h -0.51724 -28.96551 z" />
    <path
       sodipodi:nodetypes="cccccc"
       d="m 385.57143,526.798 v 1 h 13 l 2,-5 -3,4 z"
       id="path4224"
       style="fill:#ffffff;fill-opacity:0.235294;fill-rule:evenodd"
       inkscape:connector-curvature="0" />
    <path
       sodipodi:nodetypes="ccccccc"
       d="m 400.57143,522.798 -4,3 h -11 v 1 h 6.99999 5.00001 z"
       id="path4306-3"
       style="fill-opacity:0.235294;fill-rule:evenodd"
       inkscape:connector-curvature="0" />
    <path
       sodipodi:nodetypes="cccccc"
       inkscape:connector-curvature="0"
       style="fill:#ffffff;fill-opacity:0.235294;fill-rule:evenodd"
       id="path4204"
       d="m 397.57143,517.798 3,5 h 15 v -1 h -15 z" />
    <path
       inkscape:connector-curvature="0"
       style="fill:#1272a5" 
       id="rect4184" 
       d="M 12 13 L 12 23 L 17 23 L 18 22 L 19 21 L 20 20 L 20 13 L 12 13 z M 13 14 L 19 14 L 19 20 L 17 20 L 17 22 L 13 22 L 13 14 z " 
       transform="matrix(1 0 0 1 384.57143 515.798)" />
  </g>
</svg>
